img/icons/document/open.svg

<svg fill="none" viewBox="0 0 16 16" xmlns="http://www.w3.org/2000/svg"><path d="m15 4.12c0-0.398-0.158-0.779-0.439-1.06l-2.62-2.62c-0.281-0.281-0.663-0.439-1.06-0.439h-4.88c-1.4 0-2.1 0-2.63 0.272-0.47 0.24-0.853 0.622-1.09 1.09-0.272 0.535-0.272 1.23-0.272 2.63l-0.5 1e-5c-0.828 0-1.5 0.672-1.5 1.5v9c0 0.828 0.672 1.5 1.5 1.5h11.1c0.646 0 1.22-0.413 1.42-1.03l1.77-5.32c0.108-0.324-0.133-0.658-0.474-0.658h-10.8c-0.323 0-0.609 0.207-0.712 0.513l-1.83 5.49h-0.5c-0.276 0-0.5-0.224-0.5-0.5v-9c0-0.276 0.224-0.5 0.5-0.5h0.5v4.5c0 0.276 0.224 0.5 0.5 0.5s0.5-0.224 0.5-0.5v-5.5c0-0.717 7.8e-4 -1.19 0.0307-1.56 0.029-0.355 0.0803-0.518 0.133-0.62 0.144-0.282 0.373-0.512 0.656-0.656 0.103-0.0524 0.265-0.104 0.62-0.133 0.367-0.03 0.844-0.0307 1.56-0.0307h4v3.5c0 0.276 0.224 0.5 0.5 0.5h3.5v2.5c0 0.276 0.224 0.5 0.5 0.5s0.5-0.224 0.5-0.5v-3.38zm-4-0.121v-2.97l3 2.97-3 1e-5z" clip-rule="evenodd" fill="#000" fill-rule="evenodd"/></svg>

<svg xmlns="http://www.w3.org/2000/svg" viewBox="0 0 16 16" fill="none">
  <path fill="#000" fill-rule="evenodd"
    d="M15 4.122a1.5 1.5 0 0 0-.44-1.061L11.94.44A1.5 1.5 0 0 0 10.878 0H6C4.6 0 3.9 0 3.365.273a2.5 2.5 0 0 0-1.093 1.092C2 1.9 2 2.6 2 4h-.5A1.5 1.5 0 0 0 0 5.5v9A1.5 1.5 0 0 0 1.5 16h11.085a1.5 1.5 0 0 0 1.424-1.025l1.772-5.317A.5.5 0 0 0 15.306 9H4.541a.75.75 0 0 0-.712.513L2 15h-.5a.5.5 0 0 1-.5-.5v-9a.5.5 0 0 1 .5-.5H2v4.5a.5.5 0 0 0 1 0V4c0-.716 0-1.194.03-1.56.03-.355.081-.518.133-.62a1.5 1.5 0 0 1 .656-.656c.103-.053.265-.104.62-.133.367-.03.844-.03 1.561-.03h4v3.5a.5.5 0 0 0 .5.5H14v2.5a.5.5 0 0 0 1 0V4.12ZM11 4V1.031l3 2.97h-3Z"
    clip-rule="evenodd" />
</svg>
